lib/logo_tmp/nrk-logo-nrk-p2-on-dark.svg

<svg width="66" height="16" viewBox="0 0 66 16" fill="none" xmlns="http://www.w3.org/2000/svg">
<path d="M0 15V1.00129H4.59339V15H0ZM10.8428 3.22926L13.4844 15H8.45737L5.30307 1.00129H8.12254C8.76907 0.992901 9.39641 1.22081 9.88691 1.64214C10.3782 2.0458 10.7158 2.60617 10.8428 3.22926ZM14.1744 15V1.00129H18.7678V15H14.1744ZM22.2372 6.3248C21.7422 6.32963 21.2552 6.20012 20.828 5.95015C20.4064 5.70649 20.0563 5.35631 19.8127 4.93472C19.5624 4.50741 19.4329 4.02024 19.4378 3.52506C19.4321 3.03289 19.5618 2.54863 19.8127 2.12519C20.0589 1.70818 20.4086 1.3618 20.828 1.11963C21.2553 0.86994 21.7423 0.740454 22.2372 0.744968C22.7292 0.739669 23.2133 0.869271 23.6369 1.11963C24.0521 1.36392 24.3981 1.71001 24.6424 2.12519C24.893 2.54875 25.0226 3.03293 25.0172 3.52506C25.0218 4.0202 24.8923 4.50729 24.6424 4.93472C24.4007 5.35446 24.0542 5.70435 23.6369 5.95015C23.2133 6.20099 22.7289 6.33063 22.2366 6.3248H22.2372ZM25.7269 15V1.00129H30.3207V15H25.7269ZM36.136 8.65129C36.1489 8.66487 36.2475 8.82588 36.4317 9.13434C36.6159 9.44279 36.8558 9.83715 37.1513 10.3174C37.447 10.7973 37.759 11.3067 38.0874 11.8454C38.4157 12.384 38.7247 12.8934 39.0143 13.3734C39.3028 13.8534 39.6313 14.3956 40 15H34.9531C34.6375 14.4874 34.3515 14.0241 34.0952 13.61C33.8389 13.196 33.5665 12.749 33.2778 12.2693C32.9884 11.7899 32.7024 11.3233 32.4196 10.8694C32.1368 10.4155 31.8938 10.0179 31.6905 9.67659C31.4863 9.33505 31.3449 9.105 31.2663 8.98648C31.0713 8.69237 30.9559 8.3527 30.9315 8.00066C30.951 7.66278 31.0597 7.33616 31.2466 7.05398C31.3254 6.92254 31.47 6.68919 31.6803 6.35401C31.8906 6.01883 32.137 5.62125 32.4196 5.1612C32.7021 4.70115 32.9882 4.23122 33.2778 3.75146C33.5674 3.27169 33.8398 2.82146 34.0952 2.40084C34.3519 1.98066 34.6379 1.51404 34.9531 1.00097H40L36.0962 7.36943C35.9754 7.55851 35.9073 7.77642 35.8991 8.00066C35.9121 8.23606 35.9942 8.46239 36.1353 8.65129H36.136Z" fill="white"/>
<path d="M54.8535 2.81385C54.611 2.43966 54.2992 2.11499 53.935 1.85718C53.5294 1.57365 53.0788 1.36033 52.6022 1.22618C52.0234 1.06673 51.4248 0.990501 50.8244 0.999765H45.3334V14.9997H47.4074V9.97153H50.9828C51.7896 9.98372 52.5858 9.7867 53.2934 9.39971C53.9717 9.0246 54.535 8.4724 54.923 7.80222C55.339 7.0627 55.5471 6.22473 55.5254 5.37687C55.5271 4.91871 55.4742 4.46197 55.3677 4.01631C55.265 3.58958 55.0911 3.18312 54.8535 2.81385ZM53.0166 7.0631C52.7514 7.47901 52.3607 7.8001 51.9009 7.98001C51.3428 8.19084 50.749 8.2913 50.1525 8.27579H47.407V2.71524H50.4294C51.0066 2.69351 51.5811 2.80473 52.1084 3.04027C52.5277 3.24257 52.8704 3.5745 53.0858 3.98674C53.3141 4.44913 53.4261 4.96014 53.412 5.47548C53.4347 6.03152 53.2975 6.58242 53.0166 7.0631Z" fill="#FB84C1"/>
<path d="M59.5486 13.3036C59.8613 13.0361 60.1826 12.7574 60.5223 12.4558C60.9964 12.0353 61.4738 11.5785 61.9544 11.0853C62.435 10.5921 62.8926 10.0796 63.3271 9.54764C63.7494 9.03271 64.1355 8.48929 64.4826 7.92122C64.807 7.39327 65.0719 6.83115 65.2727 6.24514C65.4591 5.70579 65.5559 5.13964 65.5591 4.5691C65.5685 4.03638 65.4607 3.50809 65.2431 3.02155C65.0276 2.562 64.7101 2.15744 64.3147 1.83847C63.8623 1.48056 63.3414 1.21873 62.784 1.06911C62.0988 0.882146 61.3906 0.792553 60.6803 0.802933C60.2202 0.801733 59.7608 0.84132 59.3076 0.921237C58.8765 0.997457 58.4533 1.11308 58.0434 1.26664C57.6526 1.41269 57.273 1.58723 56.9077 1.78884L57.1645 3.50432C57.4773 3.29496 57.8117 3.11979 58.162 2.9818C58.5425 2.82913 58.9358 2.71034 59.3373 2.62684C59.7465 2.5414 60.1635 2.49858 60.5816 2.49903C61.0195 2.4901 61.4561 2.54985 61.8754 2.67615C62.2094 2.77827 62.5164 2.95342 62.7741 3.18884C63.0061 3.40495 63.1852 3.67145 63.2975 3.96771C63.4124 4.28018 63.4693 4.61092 63.4654 4.94375C63.4587 5.50246 63.3448 6.05468 63.1297 6.57049C62.8797 7.17628 62.5616 7.75183 62.1815 8.28601C61.739 8.91371 61.2575 9.513 60.7397 10.0804C60.1866 10.6916 59.5842 11.3029 58.9323 11.9141C58.2805 12.5254 57.6056 13.1465 56.9077 13.7775L57.1645 15H65.7171L65.9542 13.3039L59.5486 13.3036Z" fill="#FB84C1"/>
</svg>

<svg xmlns="http://www.w3.org/2000/svg" viewBox="0 0 66 16"><path fill="#fff" d="M0 15V1.001h4.593V15H0ZM10.843 3.23 13.484 15H8.457L5.303 1.001h2.82a2.655 2.655 0 0 1 1.764.641c.491.404.829.964.956 1.587ZM14.174 15V1.001h4.594V15h-4.594Zm8.063-8.675a2.737 2.737 0 0 1-1.409-.375 2.778 2.778 0 0 1-1.015-1.015 2.735 2.735 0 0 1-.375-1.41 2.685 2.685 0 0 1 .375-1.4 2.812 2.812 0 0 1 3.824-1.005c.415.244.761.59 1.005 1.005.251.424.38.908.375 1.4.005.495-.125.982-.375 1.41a2.8 2.8 0 0 1-1.005 1.015c-.424.251-.908.38-1.4.375ZM25.727 15V1.001h4.594V15h-4.594Zm10.409-6.349c.013.014.111.175.296.483.184.309.424.703.72 1.183a377.481 377.481 0 0 1 1.862 3.056c.289.48.617 1.023.986 1.627h-5.047l-.858-1.39c-.256-.414-.529-.861-.817-1.34-.29-.48-.576-.947-.858-1.4a71.104 71.104 0 0 1-.73-1.193 21.1 21.1 0 0 0-.424-.69A2.04 2.04 0 0 1 30.932 8c.019-.338.128-.665.315-.947.078-.131.223-.365.433-.7a216.97 216.97 0 0 0 1.598-2.603l.817-1.35.858-1.4H40l-3.904 6.368c-.12.19-.189.407-.197.632.013.235.095.461.236.65h.001Z"/><path fill="#FB84C1" d="M54.853 2.814a3.513 3.513 0 0 0-.918-.957 4.413 4.413 0 0 0-1.333-.63A6.326 6.326 0 0 0 50.824 1h-5.49v14h2.073V9.972h3.576a4.669 4.669 0 0 0 2.31-.572 4.271 4.271 0 0 0 1.63-1.598c.416-.74.624-1.577.602-2.425a5.762 5.762 0 0 0-.157-1.36 3.916 3.916 0 0 0-.515-1.203Zm-1.836 4.25a2.33 2.33 0 0 1-1.116.916 4.609 4.609 0 0 1-1.748.296h-2.746v-5.56h3.022a3.77 3.77 0 0 1 1.68.324c.419.203.761.534.977.947.228.462.34.973.326 1.488a2.911 2.911 0 0 1-.395 1.588ZM59.549 13.304c.312-.268.634-.547.973-.848.474-.42.952-.877 1.432-1.37.481-.494.939-1.006 1.373-1.538.422-.515.808-1.059 1.156-1.627.324-.528.589-1.09.79-1.676a5.22 5.22 0 0 0 .286-1.676 3.633 3.633 0 0 0-.316-1.547 3.345 3.345 0 0 0-.928-1.184 4.238 4.238 0 0 0-1.531-.769A7.571 7.571 0 0 0 60.68.803c-.46-.001-.92.038-1.372.118a7.154 7.154 0 0 0-1.265.346c-.39.146-.77.32-1.135.522l.256 1.715c.313-.209.648-.384.998-.522.38-.153.774-.272 1.175-.355.41-.086.826-.128 1.245-.128a4.19 4.19 0 0 1 1.293.177c.334.102.641.277.9.513.231.216.41.482.523.779.114.312.171.643.167.976a4.362 4.362 0 0 1-.335 1.626 8.652 8.652 0 0 1-.949 1.716 18.327 18.327 0 0 1-1.441 1.794 31.404 31.404 0 0 1-1.808 1.834c-.651.611-1.326 1.232-2.024 1.864L57.164 15h8.553l.237-1.696H59.55Z"/></svg>
